humanity-icon-theme/Humanity/apps/128/system-software-install.svg

<?xml version="1.0" encoding="UTF-8" standalone="no"?>
<!-- Created with Inkscape (http://www.inkscape.org/) -->
<svg
   xmlns:svg="http://www.w3.org/2000/svg"
   xmlns="http://www.w3.org/2000/svg"
   xmlns:xlink="http://www.w3.org/1999/xlink"
   version="1.0"
   width="128"
   height="128"
   id="svg4865">
  <defs
     id="defs4867">
    <linearGradient
       id="linearGradient2490">
      <stop
         id="stop2492"
         style="stop-color:#365f0e;stop-opacity:1"
         offset="0" />
      <stop
         id="stop2494"
         style="stop-color:#84a718;stop-opacity:1"
         offset="1" />
    </linearGradient>
    <linearGradient
       x1="72.421684"
       y1="122.00002"
       x2="72.421684"
       y2="53.997635"
       id="linearGradient2892"
       xlink:href="#linearGradient2490"
       gradientUnits="userSpaceOnUse"
       gradientTransform="translate(8.9999991,2.9999863)" />
    <linearGradient
       id="linearGradient3242">
      <stop
         id="stop3244"
         style="stop-color:#eef87e;stop-opacity:1"
         offset="0" />
      <stop
         id="stop3246"
         style="stop-color:#cde34f;stop-opacity:1"
         offset="0.26238" />
      <stop
         id="stop3248"
         style="stop-color:#93b723;stop-opacity:1"
         offset="0.66093999" />
      <stop
         id="stop3250"
         style="stop-color:#5a7e0d;stop-opacity:1"
         offset="1" />
    </linearGradient>
    <radialGradient
       cx="69.447609"
       cy="51.694645"
       r="31.000002"
       fx="69.447609"
       fy="51.694645"
       id="radialGradient2890"
       xlink:href="#linearGradient3242"
       gradientUnits="userSpaceOnUse"
       gradientTransform="matrix(0,2.3878793,-2.6189646,0,224.25002,-100.52605)" />
    <linearGradient
       id="linearGradient3607">
      <stop
         id="stop3609"
         style="stop-color:#ffffff;stop-opacity:1"
         offset="0" />
      <stop
         id="stop3611"
         style="stop-color:#ffffff;stop-opacity:0"
         offset="1" />
    </linearGradient>
    <linearGradient
       x1="83.216866"
       y1="54.000008"
       x2="83.216866"
       y2="122.16803"
       id="linearGradient2887"
       xlink:href="#linearGradient3607"
       gradientUnits="userSpaceOnUse"
       gradientTransform="matrix(1.0057697,0,0,0.9939186,8.492263,3.3302155)" />
    <radialGradient
       cx="5"
       cy="41.5"
       r="5"
       fx="5"
       fy="41.5"
       id="radialGradient2480"
       xlink:href="#linearGradient3681"
       gradientUnits="userSpaceOnUse"
       gradientTransform="matrix(0.5938225,0,0,1.5366531,41.140892,-103.93618)" />
    <linearGradient
       id="linearGradient3703">
      <stop
         id="stop3705"
         style="stop-color:#000000;stop-opacity:0"
         offset="0" />
      <stop
         id="stop3711"
         style="stop-color:#000000;stop-opacity:1"
         offset="0.5" />
      <stop
         id="stop3707"
         style="stop-color:#000000;stop-opacity:0"
         offset="1" />
    </linearGradient>
    <linearGradient
       x1="17.554192"
       y1="46.000275"
       x2="17.554192"
       y2="34.999718"
       id="linearGradient2478"
       xlink:href="#linearGradient3703"
       gradientUnits="userSpaceOnUse"
       gradientTransform="matrix(1.7570316,0,0,1.3969574,-17.394014,-16.411698)" />
    <linearGradient
       id="linearGradient3681">
      <stop
         id="stop3683"
         style="stop-color:#000000;stop-opacity:1"
         offset="0" />
      <stop
         id="stop3685"
         style="stop-color:#000000;stop-opacity:0"
         offset="1" />
    </linearGradient>
    <radialGradient
       cx="5"
       cy="41.5"
       r="5"
       fx="5"
       fy="41.5"
       id="radialGradient2476"
       xlink:href="#linearGradient3681"
       gradientUnits="userSpaceOnUse"
       gradientTransform="matrix(0.5938225,0,0,1.5366531,-6.6594735,-103.93618)" />
    <linearGradient
       id="linearGradient2515">
      <stop
         id="stop2517"
         style="stop-color:#c9af8b;stop-opacity:1"
         offset="0" />
      <stop
         id="stop2519"
         style="stop-color:#ad8757;stop-opacity:1"
         offset="0.25061068" />
      <stop
         id="stop2521"
         style="stop-color:#c2a57f;stop-opacity:1"
         offset="0.26043808" />
      <stop
         id="stop2523"
         style="stop-color:#9d7d53;stop-opacity:1"
         offset="1" />
    </linearGradient>
    <linearGradient
       x1="15.464298"
       y1="8.0320501"
       x2="15.464298"
       y2="45.04248"
       id="linearGradient2509"
       xlink:href="#linearGradient2515"
       gradientUnits="userSpaceOnUse"
       gradientTransform="matrix(2.7070745,0,0,2.6645996,-0.969786,0.9205222)" />
    <linearGradient
       id="linearGradient2525">
      <stop
         id="stop2527"
         style="stop-color:#dac197;stop-opacity:1"
         offset="0" />
      <stop
         id="stop2529"
         style="stop-color:#c1a581;stop-opacity:1"
         offset="0.2459572" />
      <stop
         id="stop2531"
         style="stop-color:#dac197;stop-opacity:1"
         offset="0.25641906" />
      <stop
         id="stop2533"
         style="stop-color:#a68b60;stop-opacity:1"
         offset="1" />
    </linearGradient>
    <linearGradient
       x1="24.996943"
       y1="15.139546"
       x2="24.996943"
       y2="38.516453"
       id="linearGradient2507"
       xlink:href="#linearGradient2525"
       gradientUnits="userSpaceOnUse"
       gradientTransform="matrix(3.4710787,0,0,4.1494794,-17.402248,-39.82322)" />
    <linearGradient
       id="linearGradient3219">
      <stop
         id="stop3225"
         style="stop-color:#cbad7a;stop-opacity:1"
         offset="0" />
      <stop
         id="stop3227"
         style="stop-color:#cbae7d;stop-opacity:0"
         offset="1" />
    </linearGradient>
    <radialGradient
       cx="24"
       cy="31"
       r="20"
       fx="24"
       fy="31"
       id="radialGradient2504"
       xlink:href="#linearGradient3219"
       gradientUnits="userSpaceOnUse"
       gradientTransform="matrix(4.5505458,0,0,1.8,-45.213099,27.199994)" />
    <linearGradient
       id="linearGradient2535">
      <stop
         id="stop2537"
         style="stop-color:#ffffff;stop-opacity:0"
         offset="0" />
      <stop
         id="stop2539"
         style="stop-color:#ffffff;stop-opacity:1"
         offset="0.1" />
      <stop
         id="stop2541"
         style="stop-color:#ffffff;stop-opacity:1"
         offset="0.89999998" />
      <stop
         id="stop2543"
         style="stop-color:#ffffff;stop-opacity:0"
         offset="1" />
    </linearGradient>
    <linearGradient
       x1="44.994774"
       y1="17.5"
       x2="3.0052247"
       y2="17.5"
       id="linearGradient2498"
       xlink:href="#linearGradient2535"
       gradientUnits="userSpaceOnUse"
       gradientTransform="matrix(2.7080051,0,0,2.6574834,-0.992123,0.994042)"
       spreadMethod="reflect" />
    <linearGradient
       id="linearGradient4793">
      <stop
         id="stop4795"
         style="stop-color:#ad8757;stop-opacity:1"
         offset="0" />
      <stop
         id="stop4797"
         style="stop-color:#c7ad88;stop-opacity:0.39215687"
         offset="1" />
    </linearGradient>
    <linearGradient
       x1="63.5"
       y1="47.5"
       x2="63.5"
       y2="23.5"
       id="linearGradient4799"
       xlink:href="#linearGradient4793"
       gradientUnits="userSpaceOnUse" />
    <linearGradient
       id="linearGradient3980">
      <stop
         id="stop3982"
         style="stop-color:#ffffff;stop-opacity:1"
         offset="0" />
      <stop
         id="stop3984"
         style="stop-color:#ffffff;stop-opacity:1"
         offset="0.32468599" />
      <stop
         id="stop3986"
         style="stop-color:#ffffff;stop-opacity:0.6901961"
         offset="0.3736864" />
      <stop
         id="stop3988"
         style="stop-color:#ffffff;stop-opacity:0"
         offset="1" />
    </linearGradient>
    <linearGradient
       x1="26"
       y1="22"
       x2="26"
       y2="8"
       id="linearGradient2495"
       xlink:href="#linearGradient3980"
       gradientUnits="userSpaceOnUse"
       gradientTransform="matrix(2.9999998,0,0,2.7142858,-7.9999988,0.2857148)" />
    <linearGradient
       id="linearGradient4805">
      <stop
         id="stop4807"
         style="stop-color:#ffffff;stop-opacity:1"
         offset="0" />
      <stop
         id="stop4811"
         style="stop-color:#ffffff;stop-opacity:0.3137255"
         offset="1" />
    </linearGradient>
    <linearGradient
       x1="63.5"
       y1="47.5"
       x2="63.5"
       y2="23.5"
       id="linearGradient4803"
       xlink:href="#linearGradient4805"
       gradientUnits="userSpaceOnUse"
       gradientTransform="translate(1,0)" />
  </defs>
  <g
     id="layer1">
    <g
       transform="matrix(2.6758724,0,0,2.6030596,4.6164632e-2,3.4479024)"
       id="g3305"
       style="opacity:0.3;display:inline">
      <rect
         width="2.9601951"
         height="15.366531"
         x="-3.6903627"
         y="-47.848343"
         transform="scale(-1,-1)"
         id="rect2484"
         style="opacity:1;fill:url(#radialGradient2476);fill-opacity:1;stroke:none;stroke-width:1;stroke-linecap:round;stroke-linejoin:miter;stroke-miterlimit:4;stroke-dasharray:none;stroke-dashoffset:1.20000057;stroke-opacity:1" />
      <rect
         width="40.41172"
         height="15.366531"
         x="3.6903627"
         y="32.481812"
         id="rect2486"
         style="opacity:1;fill:url(#linearGradient2478);fill-opacity:1;stroke:none;stroke-width:1;stroke-linecap:round;stroke-linejoin:miter;stroke-miterlimit:4;stroke-dasharray:none;stroke-dashoffset:1.20000057;stroke-opacity:1" />
      <rect
         width="2.9601951"
         height="15.366531"
         x="44.110001"
         y="-47.848343"
         transform="scale(1,-1)"
         id="rect3444"
         style="opacity:1;fill:url(#radialGradient2480);fill-opacity:1;stroke:none;stroke-width:1;stroke-linecap:round;stroke-linejoin:miter;stroke-miterlimit:4;stroke-dasharray:none;stroke-dashoffset:1.20000057;stroke-opacity:1;display:inline" />
    </g>
    <path
       d="M 23.422918,23.569618 L 103.27545,23.569618 C 107.93699,23.569618 110.0348,22.806077 111.3738,26.234216 L 119.49972,47.551014 L 119.49972,115.96171 C 119.49972,120.10065 119.77836,119.46826 115.1168,119.46826 L 12.883203,119.46826 C 8.2216424,119.46826 8.5002786,120.10065 8.5002786,115.96171 L 8.5002786,47.551014 L 16.626198,26.234216 C 17.927844,22.875324 18.761355,23.569618 23.422918,23.569618 z"
       id="path2488"
       style="fill:url(#linearGradient2507);fill-opacity:1;fill-rule:nonzero;stroke:url(#linearGradient2509);stroke-width:0.99420083;stroke-linecap:round;stroke-linejoin:miter;marker:none;marker-start:none;marker-mid:none;marker-end:none;stroke-miterlimit:4;stroke-dasharray:none;stroke-dashoffset:0;stroke-opacity:1;visibility:visible;display:block;overflow:visible" />
    <rect
       width="110"
       height="72"
       x="9"
       y="47"
       id="rect3209"
       style="fill:url(#radialGradient2504);fill-opacity:1;fill-rule:evenodd;stroke:none;stroke-width:1.69999993;stroke-linecap:round;stroke-linejoin:miter;marker:none;marker-start:none;marker-mid:none;marker-end:none;stroke-miterlimit:4;stroke-dasharray:none;stroke-dashoffset:0;stroke-opacity:1;visibility:visible;display:inline;overflow:visible;enable-background:accumulate" />
    <path
       d="M 8.5000437,47.5 L 119.49996,47.5"
       id="path3273"
       style="opacity:0.3;fill:none;fill-rule:evenodd;stroke:url(#linearGradient2498);stroke-width:0.99999988px;stroke-linecap:square;stroke-linejoin:miter;stroke-opacity:1;display:inline" />
    <path
       d="M 63.5,24 L 63.5,47"
       id="path4763"
       style="fill:none;fill-opacity:1;fill-rule:evenodd;stroke:url(#linearGradient4799);stroke-width:1px;stroke-linecap:butt;stroke-linejoin:miter;stroke-opacity:1" />
    <path
       d="M 58,22 C 61.999998,22 66.000002,22 70,22 C 70,34.666666 70,47.333332 70,60 C 68.818814,60 67.637626,60 66.45644,60 C 65.247064,60 64.037688,60 62.828314,60 C 61.854726,60 60.881144,60 59.90756,60 C 59.271706,60 58.635852,60 58,60 C 58,47.333332 58,34.666666 58,22 z"
       id="rect3326"
       style="opacity:0.4;fill:url(#linearGradient2495);fill-opacity:1;fill-rule:nonzero;stroke:none;stroke-width:1;stroke-linecap:square;stroke-linejoin:round;marker:none;marker-start:none;marker-mid:none;marker-end:none;stroke-miterlimit:4;stroke-dasharray:none;stroke-dashoffset:0;stroke-opacity:1;visibility:visible;display:inline;overflow:visible;enable-background:accumulate" />
    <path
       d="M 64.5,24 L 64.5,47"
       id="path4801"
       style="opacity:0.3;fill:none;fill-opacity:1;fill-rule:evenodd;stroke:url(#linearGradient4803);stroke-width:1px;stroke-linecap:butt;stroke-linejoin:miter;stroke-opacity:1" />
  </g>
  <path
     d="M 127.50729,87.499986 L 96.923359,124.50729 L 66.492714,87.499986 L 80.5,87.499986 L 80.5,57.492706 L 113.5,57.492706 L 113.5,87.499986 L 127.50729,87.499986 L 127.50729,87.499986 z"
     id="path3288"
     style="fill:url(#radialGradient2890);fill-opacity:1;fill-rule:nonzero;stroke:url(#linearGradient2892);stroke-width:0.9854275;stroke-linecap:round;stroke-linejoin:round;marker:none;stroke-miterlimit:4;stroke-dasharray:none;stroke-dashoffset:0;stroke-opacity:1;visibility:visible;display:inline;overflow:visible" />
  <path
     d="M 81.5,58.499986 C 81.5,58.499986 81.5,88.499986 81.5,88.499986 C 81.5,88.499986 68.492713,88.499986 68.492713,88.499986 C 68.492713,88.499986 96.937137,122.49999 96.937137,122.49999 C 96.937137,122.49999 125.50728,88.499986 125.50728,88.499986 C 125.50728,88.499986 112.5,88.499986 112.5,88.499986 C 112.5,88.499986 112.5,58.499986 112.5,58.499986 C 112.5,58.499986 81.5,58.499986 81.5,58.499986 L 81.5,58.499986 z"
     id="path4188"
     style="opacity:0.4;fill:none;stroke:url(#linearGradient2887);stroke-width:0.9854275;stroke-linecap:round;stroke-linejoin:round;marker:none;stroke-miterlimit:4;stroke-dasharray:none;stroke-dashoffset:0;stroke-opacity:1;visibility:visible;display:inline;overflow:visible" />
</svg>

<?xml version="1.0" encoding="UTF-8" standalone="no"?>
<!-- Created with Inkscape (http://www.inkscape.org/) -->
<svg id="svg4865" xmlns="http://www.w3.org/2000/svg" height="128" width="128" version="1.0" xmlns:xlink="http://www.w3.org/1999/xlink">
 <defs id="defs4867">
  <linearGradient id="linearGradient2892" y2="53.998" gradientUnits="userSpaceOnUse" x2="72.422" gradientTransform="translate(9 3)" y1="122" x1="72.422">
   <stop id="stop2492" style="stop-color:#365f0e" offset="0"/>
   <stop id="stop2494" style="stop-color:#84a718" offset="1"/>
  </linearGradient>
  <radialGradient id="radialGradient2890" gradientUnits="userSpaceOnUse" cy="51.695" cx="69.448" gradientTransform="matrix(0 2.3879 -2.619 0 224.25 -100.53)" r="31">
   <stop id="stop3244" style="stop-color:#eef87e" offset="0"/>
   <stop id="stop3246" style="stop-color:#cde34f" offset=".26238"/>
   <stop id="stop3248" style="stop-color:#93b723" offset=".66094"/>
   <stop id="stop3250" style="stop-color:#5a7e0d" offset="1"/>
  </radialGradient>
  <linearGradient id="linearGradient2887" y2="122.17" gradientUnits="userSpaceOnUse" x2="83.217" gradientTransform="matrix(1.0058 0 0 .99392 8.4923 3.3302)" y1="54" x1="83.217">
   <stop id="stop3609" style="stop-color:#fff" offset="0"/>
   <stop id="stop3611" style="stop-color:#fff;stop-opacity:0" offset="1"/>
  </linearGradient>
  <radialGradient id="radialGradient2480" xlink:href="#linearGradient3681" gradientUnits="userSpaceOnUse" cy="41.5" cx="5" gradientTransform="matrix(.59382 0 0 1.5367 41.141 -103.94)" r="5"/>
  <linearGradient id="linearGradient2478" y2="35" gradientUnits="userSpaceOnUse" x2="17.554" gradientTransform="matrix(1.757 0 0 1.397 -17.394 -16.412)" y1="46" x1="17.554">
   <stop id="stop3705" style="stop-opacity:0" offset="0"/>
   <stop id="stop3711" offset=".5"/>
   <stop id="stop3707" style="stop-opacity:0" offset="1"/>
  </linearGradient>
  <linearGradient id="linearGradient3681">
   <stop id="stop3683" offset="0"/>
   <stop id="stop3685" style="stop-opacity:0" offset="1"/>
  </linearGradient>
  <radialGradient id="radialGradient2476" xlink:href="#linearGradient3681" gradientUnits="userSpaceOnUse" cy="41.5" cx="5" gradientTransform="matrix(.59382 0 0 1.5367 -6.6595 -103.94)" r="5"/>
  <linearGradient id="linearGradient2509" y2="45.042" gradientUnits="userSpaceOnUse" x2="15.464" gradientTransform="matrix(2.7071 0 0 2.6646 -.96979 .92052)" y1="8.0321" x1="15.464">
   <stop id="stop2517" style="stop-color:#c9af8b" offset="0"/>
   <stop id="stop2519" style="stop-color:#ad8757" offset=".25061"/>
   <stop id="stop2521" style="stop-color:#c2a57f" offset=".26044"/>
   <stop id="stop2523" style="stop-color:#9d7d53" offset="1"/>
  </linearGradient>
  <linearGradient id="linearGradient2507" y2="38.516" gradientUnits="userSpaceOnUse" x2="24.997" gradientTransform="matrix(3.4711 0 0 4.1495 -17.402 -39.823)" y1="15.14" x1="24.997">
   <stop id="stop2527" style="stop-color:#dac197" offset="0"/>
   <stop id="stop2529" style="stop-color:#c1a581" offset=".24596"/>
   <stop id="stop2531" style="stop-color:#dac197" offset=".25642"/>
   <stop id="stop2533" style="stop-color:#a68b60" offset="1"/>
  </linearGradient>
  <radialGradient id="radialGradient2504" gradientUnits="userSpaceOnUse" cy="31" cx="24" gradientTransform="matrix(4.5505 0 0 1.8 -45.213 27.2)" r="20">
   <stop id="stop3225" style="stop-color:#cbad7a" offset="0"/>
   <stop id="stop3227" style="stop-color:#cbae7d;stop-opacity:0" offset="1"/>
  </radialGradient>
  <linearGradient id="linearGradient2498" y2="17.5" spreadMethod="reflect" gradientUnits="userSpaceOnUse" x2="3.0052" gradientTransform="matrix(2.708 0 0 2.6575 -.99212 .99404)" y1="17.5" x1="44.995">
   <stop id="stop2537" style="stop-color:#fff;stop-opacity:0" offset="0"/>
   <stop id="stop2539" style="stop-color:#fff" offset=".1"/>
   <stop id="stop2541" style="stop-color:#fff" offset="0.9"/>
   <stop id="stop2543" style="stop-color:#fff;stop-opacity:0" offset="1"/>
  </linearGradient>
  <linearGradient id="linearGradient4799" y2="23.5" gradientUnits="userSpaceOnUse" x2="63.5" y1="47.5" x1="63.5">
   <stop id="stop4795" style="stop-color:#ad8757" offset="0"/>
   <stop id="stop4797" style="stop-color:#c7ad88;stop-opacity:.39216" offset="1"/>
  </linearGradient>
  <linearGradient id="linearGradient2495" y2="8" gradientUnits="userSpaceOnUse" x2="26" gradientTransform="matrix(3 0 0 2.7143 -8 .28571)" y1="22" x1="26">
   <stop id="stop3982" style="stop-color:#fff" offset="0"/>
   <stop id="stop3984" style="stop-color:#fff" offset=".32469"/>
   <stop id="stop3986" style="stop-color:#fff;stop-opacity:.69020" offset=".37369"/>
   <stop id="stop3988" style="stop-color:#fff;stop-opacity:0" offset="1"/>
  </linearGradient>
  <linearGradient id="linearGradient4803" y2="23.5" gradientUnits="userSpaceOnUse" x2="63.5" gradientTransform="translate(1)" y1="47.5" x1="63.5">
   <stop id="stop4807" style="stop-color:#fff" offset="0"/>
   <stop id="stop4811" style="stop-color:#fff;stop-opacity:.31373" offset="1"/>
  </linearGradient>
 </defs>
 <g id="layer1">
  <g id="g3305" style="opacity:.3" transform="matrix(2.6759 0 0 2.6031 .046165 3.4479)">
   <rect id="rect2484" style="opacity:1;fill:url(#radialGradient2476)" transform="scale(-1)" height="15.367" width="2.9602" y="-47.848" x="-3.6904"/>
   <rect id="rect2486" style="opacity:1;fill:url(#linearGradient2478)" height="15.367" width="40.412" y="32.482" x="3.6904"/>
   <rect id="rect3444" style="opacity:1;fill:url(#radialGradient2480)" transform="scale(1,-1)" height="15.367" width="2.9602" y="-47.848" x="44.11"/>
  </g>
  <path id="path2488" style="stroke:url(#linearGradient2509);stroke-linecap:round;stroke-width:.99420;display:block;fill:url(#linearGradient2507)" d="m23.423 23.57h79.857c4.66 0 6.75-0.764 8.09 2.664l8.13 21.317v68.409c0 4.14 0.28 3.51-4.38 3.51h-102.24c-4.6584 0-4.3797 0.63-4.3797-3.51v-68.409l8.1257-21.317c1.302-3.359 2.135-2.664 6.797-2.664z"/>
  <rect id="rect3209" style="fill-rule:evenodd;fill:url(#radialGradient2504)" height="72" width="110" y="47" x="9"/>
  <path id="path3273" style="opacity:.3;stroke:url(#linearGradient2498);stroke-linecap:square;stroke-width:1px;fill:none" d="m8.5 47.5h111"/>
  <path id="path4763" style="stroke:url(#linearGradient4799);stroke-width:1px;fill:none" d="m63.5 24v23"/>
  <path id="rect3326" style="opacity:.4;fill:url(#linearGradient2495)" d="m58 22h12v38h-3.544-3.628-2.92-1.908v-38z"/>
  <path id="path4801" style="opacity:.3;stroke:url(#linearGradient4803);stroke-width:1px;fill:none" d="m64.5 24v23"/>
 </g>
 <path id="path3288" style="stroke-linejoin:round;stroke:url(#linearGradient2892);stroke-linecap:round;stroke-width:.98543;fill:url(#radialGradient2890)" d="m127.51 87.5l-30.587 37.01-30.43-37.01h14.007v-30.007h33v30.007h14.01z"/>
 <path id="path4188" style="opacity:.4;stroke-linejoin:round;stroke:url(#linearGradient2887);stroke-linecap:round;stroke-width:.98543;fill:none" d="m81.5 58.5v30h-13.007s28.444 34 28.444 34 28.573-34 28.573-34h-13.01v-30h-31z"/>
</svg>
